X:1
T:Je ne mange point de porc
T:Je ne mange point de porc
T:Claudin de Sermisy
C:Claudin de Sermisy
%%score [ 1 2 3 4 ]
L:1/8
Q:1/4=110
M:2/2
K:F
V:1 treble nm="S."
V:2 treble nm="A."
V:3 treble-8 nm="T."
V:4 bass nm="B."
V:1
 z4 d4 | B2 G2 c3 B | AGFE D2 B2 | A2 G2 FEG^F | G4 z2 B2 | B2 B2 AG AB | c3 B A2 G2 | F4 z2 F2 | %8
w: Al-|ler m'y faut *|* * * * * sur|la ver- du- * * *|re, Cher-|cher par- ti * en *|quel- que bon- ne|part, E-|
 G2 G2 AG AB | c2 B2 B2 A2 | B4 d4 | B2 G2 c3 B | AGFE D2 B2 | A2 G4 ^F2 | G2 B2 G2 B2 | %15
w: tre har- di, * joy- *|eux, frisque et gail-|lard, Oncqu'|ne trou- va *|* * * * * cou-|ard pâ- tu-|re. A- mi je|
 A3 B c2 d2 | cBd^c d2 G2 | B2 G2 c3 B | A2 G2 A4 | A2 B2 G2 B2 | A3 B c2 d2- | d2 ^c2 d2 d2 | %22
w: n'ai qui me pro-|cu- * * * re, Al-|ler m'y faut sur|la ver- du-|re. A- mi je|n'ai qui me pro-|* cu- re. Du|
 B2 B2 c3 c | c2 c2 B4 | A2 G2 B2 G2 | c3 B A2 G2 | A4 F2 d2 | B3 B c3 c | c2 c2 B4 | A2 d2 cABc | %30
w: jeu d'a- mour, las|tant j'en- du-|re, Al- ler m'y|faut sur la ver-|du- re. Du|jeu d'a- mour, las|tant j'en- du-|re. Si trou- vais un gal-|
 A2 B2 B2 B2 | A2 d2 c2 B2 | AG BA B2 B2 | AAGG F2 d2 | ddcB AG B2- | BABA/G/ F4 | d4 B2 G2 | %37
w: lois, De mon vou-|loir fe- rait ou-|ver- * tu- * re. Si|j'en- trais en ce bois, Ren-|con- trais quel- que cré- a- tu-|* * * * * re.|Al- ler m'y|
 c3 B AGFE | D2 B2 A2 G2 | FEG^F G4 | d4 B2 G2 | c3 B AGFE | D2 B2 A2 G2 | FEG^F G4 |] %44
w: faut * * * * *|* sur la ver-|du- * * * re,|Al- ler m'y|faut * * * * *|* sur la ver-|du- * * * re.|
V:2
 D4 B,2 G,2 | G3 F ED C2- | C2 D2 B,2 G,2 | C4 D4- | D4 z2 G2 | G2 G2 F2 F2 | G3 F F2 D2 | %7
w: Al- ler m'y|faut * * * *|* sur la ver-|du- re,|* Cher-|cher par- ti en|quel- que bon- ne|
 D4 z2 D2 | D2 D2 F3 F | G2 _E2 F2 F2 | D3 D B,2 G,2 | G3 F ED C2- | C2 D2 B,2 G,2 | C4 D4 | %14
w: part, E-|tre har- di, joy-|eux, frisque et gail-|lard, Oncqu' ne trou-|va * * * *|* cou- ard pâ-|tu- *|
 D2 D2 E2 G2 | F3 F GF ED | E4 D2 D2 | D2 D2 F2 F2 | E2 D2 E4 | D2 D2 E2 G2 | F3 F GF ED | %21
w: re. A- mi je|n'ai qui me * pro- *|cu- re, Al-|ler m'y faut sur|la ver- du-|re. A- mi je|n'ai qui me * pro- *|
 E4 D2 F2 | G2 G2 A3 A | A2 A2 G4 | F2 D2 D2 D2 | F2 F2 E2 D2 | E4 F2 F2 | F2 F2 A3 A | A2 A2 G4 | %29
w: cu- re. Du|jeu d'a- mour, las|tant j'en- du-|re, Al- ler m'y|faut sur la ver-|du- re. Du|jeu d'a- mour, las|tant j'en- du-|
 F2 D2 EFDE | F2 D2 D2 D2 | C2 DC/D/ _ED CB, | C2 C2 B,2 F2 | FFDE D2 F2 | FFFF E2 D2 | %35
w: re. Si trou- vais un gal-|lois, De mon vou-|loir fe- * * rait * ou- *|ver- tu- re. Si|j'en- trais en ce bois, Ren-|con- trais quel- que cré- a-|
 DC C2 D3 D | B,2 G,2 G3 F | ED C4 D2 | B,2 G,2 C4 | D2 D4 B,2 | G,2 G3 FED | E3 D/E/ F2 A2 | %42
w: * * tu- re. Al-|ler m'y faut *|* * * sur|la ver- du-|re, Al- ler|m'y faut * * *|* * * * sur|
 G2 F2 E4 | D4 D4 |] %44
w: la ver- du-|* re.|
V:3
 z2 d4 B2 | G2 c3 BAG | A3 A Bc dB | cBAG A4 | G4 z2 d2 | d2 d2 d3 d | _e3 d c2 B2 | A4 z2 A2 | %8
w: Al- ler|m'y faut * * *|* sur la * ver- *|du- * * * *|re, Cher-|cher par- ti en|quel- que bon- ne|part, E-|
 B2 B2 cB cd | _ed cB c2 c2 | B2 d4 B2 | G2 c3 BAG | A3 A Bc dB | cBAG A4 | G3 G c2 G2 | %15
w: tre har- di, * joy- *|eux, * frisque * et gail-|lard, Oncqu' ne|trou- va * * *|* cou- ard * pâ- *|tu- * * * *|re. A- mi je|
 d2 d2 c2 B2 | A4 D2 B2 | G2 B2 A3 B | c2 d2 cBd^c | d2 G2 c2 G2 | d3 d c2 B2 | A4 D2 B2 | %22
w: n'ai qui me pro-|cu- re, Al-|ler m'y faut sur|la ver- du- * * *|re. A- mi je|n'ai qui me pro-|cu- re. Du|
 G2 G2 F3 F | F2 F2 G4 | D2 B2 G2 B2 | A3 B c2 d2 | cBd^c d2 B2 | G2 G2 F3 F | F2 F2 G4 | %29
w: jeu d'a- mour, las|tant j'en- du-|re, Al- ler m'y|faut sur la ver-|du- * * * re. Du|jeu d'a- mour, las|tant j'en- du-|
 D2 B2 AFGC | D2 G2 G2 G2 | F2 B2 _E2 G2 | F2 F2 B2 d2 | cABc A2 B2 | BBAd c2 B2 | A4 A2 d2- | %36
w: re. Si trou- vais un gal-|lois, De mon vou-|loir fe- rait ou-|ver- tu- re. Si|j'en- trais en ce bois, Ren-|con- trais quel- que cré- a-|tu- re. Al-|
 d2 B2 G2 c2- | cBAG A3 A | Bc dB cBAG | A4 G2 d2- | d2 B2 G2 c2- | cBAG A3 G/A/ | B2 d2 c2 A2 | %43
w: * ler m'y faut|* * * * * sur|la * ver- * du- * * *|* re, Al-|* ler m'y faut||* sur la ver-|
 A4 G4 |] %44
w: du- re.|
V:4
 z8 | z4 A,4 | F,2 D,2 G,3 G, | F,2 E,2 D,4 | G,,4 z2 G,2 | G,2 G,2 D,2 D,2 | C,3 C, F,2 G,2 | %7
w: |Al-|ler m'y faut sur|la ver- du-|re, Cher-|cher par- ti en|quel- que bon- ne|
 D,4 z2 D,2 | G,2 G,2 F,2 F,2 | C,2 G,2 F,2 F,2 | B,,4 z4 | z4 A,4 | F,2 D,2 G,3 G, | F,2 E,2 D,4 | %14
w: part, E-|tre har- di, joy-|eux, frisque et gail-|lard,|Oncqu'|ne trou- va cou-|ard pâ- tu-|
 G,,4 z4 | z8 | z4 z2 G,2 | G,2 G,2 F,3 G, | A,2 B,2 A,4 | D,2 z2 z4 | z8 | z8 | z8 | z8 | %24
w: re.||Al-|ler m'y faut sur|la ver- du-|re.|||||
 z2 G,2 G,2 G,2 | F,3 G, A,2 B,2 | A,4 D,2 z2 | z8 | z8 | z8 | z8 | z8 | z4 z2 B,,2 | %33
w: Al- ler m'y|faut sur la ver-|du- re.||||||Si|
 F,F,G,C, D,2 B,,2 | B,,B,,F,B,, C,2 D,2 | _E,4 D,4 | z8 | A,4 F,2 D,2 | G,3 G, F,2 E,2 | %39
w: j'en- trais en ce bois, Ren-|con- trais quel- que cré- a-|tu- re.||Al- ler m'y|faut sur la ver-|
 D,4 G,,4- | G,,4 z4 | A,4 F,2 D,2 | G,2 B,,2 C,2 C,2 | D,4 G,,4 |] %44
w: du- re,||Al- ler m'y|faut sur la ver-|du- re.|

